img/search.svg

<svg width="18" height="18" fill="none" xmlns="http://www.w3.org/2000/svg"><g clip-path="url(#a)"><path d="m18 16.5-3.7-3.7c1-1.3 1.7-3 1.7-4.9 0-4.4-3.6-8-8-8S0 3.6 0 8c0 4.4 3.6 8 8 8 1.8 0 3.5-.6 4.9-1.7l3.7 3.7 1.4-1.5ZM8 14c-3.3 0-6-2.7-6-6s2.7-6 6-6 6 2.7 6 6-2.7 6-6 6Z" fill="#000"/></g><defs><clipPath id="a"><path fill="#fff" d="M0 0h18v18H0z"/></clipPath></defs></svg>

<svg width="18" height="18" viewBox="0 0 18 18" fill="none" xmlns="http://www.w3.org/2000/svg">
<g clip-path="url(#clip0)">
<path d="M18 16.5L14.3 12.8C15.3 11.5 16 9.8 16 7.9C16 3.5 12.4 -0.1 8 -0.1C3.6 -0.1 0 3.6 0 8C0 12.4 3.6 16 8 16C9.8 16 11.5 15.4 12.9 14.3L16.6 18L18 16.5ZM8 14C4.7 14 2 11.3 2 8C2 4.7 4.7 2 8 2C11.3 2 14 4.7 14 8C14 11.3 11.3 14 8 14Z" fill="black"/>
</g>
<defs>
<clipPath id="clip0">
<rect width="18" height="18" fill="white"/>
</clipPath>
</defs>
</svg>
